apps/24/xchat-gnome.svg

<?xml version="1.0" encoding="UTF-8" standalone="no"?>
<!-- Created with Inkscape (http://www.inkscape.org/) -->

<svg
   xmlns:svg="http://www.w3.org/2000/svg"
   xmlns="http://www.w3.org/2000/svg"
   xmlns:xlink="http://www.w3.org/1999/xlink"
   version="1.0"
   width="24"
   height="24"
   id="svg2">
  <defs
     id="defs4">
    <linearGradient
       id="linearGradient4588">
      <stop
         id="stop4591"
         style="stop-color:black;stop-opacity:0.3255814"
         offset="0" />
      <stop
         id="stop4590"
         style="stop-color:black;stop-opacity:0.19215687"
         offset="0.5" />
      <stop
         id="stop4589"
         style="stop-color:black;stop-opacity:0"
         offset="1" />
    </linearGradient>
    <radialGradient
       cx="6.702713"
       cy="73.615715"
       r="7.228416"
       fx="6.702713"
       fy="73.615715"
       id="radialGradient10066"
       xlink:href="#linearGradient4588"
       gradientUnits="userSpaceOnUse"
       gradientTransform="scale(1.902215,0.525703)" />
    <linearGradient
       id="linearGradient2542">
      <stop
         id="stop2544"
         style="stop-color:#d4d4d4;stop-opacity:1"
         offset="0" />
      <stop
         id="stop2546"
         style="stop-color:#ebebe9;stop-opacity:1"
         offset="1" />
    </linearGradient>
    <linearGradient
       x1="24"
       y1="33.799904"
       x2="24"
       y2="13.56527"
       id="linearGradient2478"
       xlink:href="#linearGradient2542"
       gradientUnits="userSpaceOnUse"
       gradientTransform="matrix(0.5392005,-0.04912046,0.05302667,0.5875101,-2.0654075,-0.980875)" />
    <linearGradient
       id="linearGradient4593">
      <stop
         id="stop12409"
         style="stop-color:white;stop-opacity:1"
         offset="0" />
      <stop
         id="stop12411"
         style="stop-color:white;stop-opacity:0"
         offset="1" />
    </linearGradient>
    <linearGradient
       x1="23.967623"
       y1="1.0104272"
       x2="23.967623"
       y2="47.604183"
       id="linearGradient2475"
       xlink:href="#linearGradient4593"
       gradientUnits="userSpaceOnUse"
       gradientTransform="matrix(0.510074,-0.04644907,0.05016228,0.5555587,-1.305188,-0.2387713)" />
    <linearGradient
       id="linearGradient19229-104-621-395-322-303">
      <stop
         id="stop3185"
         style="stop-color:#c3ae00;stop-opacity:1"
         offset="0" />
      <stop
         id="stop3187"
         style="stop-color:#c92121;stop-opacity:1"
         offset="1" />
    </linearGradient>
    <linearGradient
       x1="9.4329195"
       y1="4.3984976"
       x2="11.067943"
       y2="16.030073"
       id="linearGradient3326"
       xlink:href="#linearGradient19229-104-621-395-322-303"
       gradientUnits="userSpaceOnUse"
       gradientTransform="translate(-0.1196662,0.1351597)" />
    <linearGradient
       id="linearGradient4150">
      <stop
         id="stop4152"
         style="stop-color:#fce94f;stop-opacity:1"
         offset="0" />
      <stop
         id="stop4154"
         style="stop-color:#ff8181;stop-opacity:1"
         offset="1" />
    </linearGradient>
    <linearGradient
       x1="11.415708"
       y1="4.3984976"
       x2="13.133347"
       y2="16.030073"
       id="linearGradient2548"
       xlink:href="#linearGradient4150"
       gradientUnits="userSpaceOnUse"
       gradientTransform="translate(-0.1196662,0.1351597)" />
  </defs>
  <g
     id="layer1">
    <path
       d="m 26.5,38.700001 a 13.75,3.8 0 1 1 -27.5,0 13.75,3.8 0 1 1 27.5,0 z"
       transform="matrix(0.8542113,0,0,0.6770133,1.1088059,-4.773066)"
       id="path2460"
       style="opacity:0.4;fill:url(#radialGradient10066);fill-opacity:1;fill-rule:nonzero;stroke:none;stroke-width:0.71986049;marker:none;visibility:visible;display:inline;overflow:visible" />
    <path
       d="M 10.440348,2.395488 C 4.804251,3.225195 0.63388146,7.102695 1.0128051,11.301 c 0.2453693,2.718574 2.3350501,4.956193 5.3233759,6.136791 l -1.2473685,4.853248 5.5182675,-3.985027 0.03815,-0.0035 c 0.680994,0.0325 1.365148,0.04327 2.075104,-0.0214 6.05829,-0.551901 10.664405,-4.577194 10.266843,-8.981971 -0.39756,-4.404778 -5.649239,-7.532038 -11.707529,-6.980136 -0.283982,0.02587 -0.562113,0.035653 -0.839299,0.076459 z"
       id="path2462"
       style="fill:url(#linearGradient2478);fill-opacity:1;fill-rule:evenodd;stroke:#8f928c;stroke-width:0.99525028;stroke-linecap:butt;stroke-linejoin:round;stroke-miterlimit:4;stroke-opacity:1;stroke-dasharray:none;stroke-dashoffset:0;marker:none;visibility:visible;display:inline;overflow:visible" />
    <path
       d="m 10.655557,3.4062902 c -4.7349265,0.6883154 -8.9099038,3.75183 -8.5805974,7.8999638 0.2211846,2.786171 2.8177619,4.676817 5.5182564,5.555744 l -0.9911855,3.136534 3.6945275,-2.623113 c 0.571793,0.02479 1.660966,0.06902 2.25731,0.01471 4.509027,-0.410607 9.991585,-3.81075 9.470105,-7.9511373 C 21.496,5.2470643 16.495452,2.8516764 11.360544,3.3420913 11.122107,3.3648635 10.888422,3.37244 10.655557,3.4062902 z"
       id="path2464"
       style="opacity:0.4;fill:none;stroke:url(#linearGradient2475);stroke-width:0.99525028;stroke-linecap:butt;stroke-linejoin:miter;stroke-miterlimit:4;stroke-opacity:1;stroke-dasharray:none;stroke-dashoffset:0;marker:none;visibility:visible;display:inline;overflow:visible" />
    <path
       d="m 8.3843758,5.7265829 -1.587689,2.0508841 3.6215012,2.803577 -2.8035762,3.621501 2.050887,1.587687 2.8035752,-3.621499 3.621502,2.803574 1.587689,-2.050885 L 14.056762,10.117846 16.86034,6.4963438 14.809453,4.9086575 12.005876,8.5301584 8.3843758,5.7265829 z"
       id="path2530"
       style="fill:url(#linearGradient2548);fill-opacity:1;fill-rule:evenodd;stroke:url(#linearGradient3326);stroke-width:0.75;stroke-linecap:round;stroke-linejoin:round;stroke-miterlimit:4;stroke-opacity:1;stroke-dasharray:none" />
  </g>
</svg>

<?xml version="1.0" encoding="UTF-8" standalone="no"?>
<!-- Created with Inkscape (http://www.inkscape.org/) -->
<svg
   xmlns:dc="http://purl.org/dc/elements/1.1/"
   xmlns:cc="http://creativecommons.org/ns#"
   xmlns:rdf="http://www.w3.org/1999/02/22-rdf-syntax-ns#"
   xmlns:svg="http://www.w3.org/2000/svg"
   xmlns="http://www.w3.org/2000/svg"
   xmlns:xlink="http://www.w3.org/1999/xlink"
   xmlns:sodipodi="http://sodipodi.sourceforge.net/DTD/sodipodi-0.dtd"
   xmlns:inkscape="http://www.inkscape.org/namespaces/inkscape"
   width="24"
   height="24"
   id="svg2"
   sodipodi:version="0.32"
   inkscape:version="0.46"
   version="1.0"
   sodipodi:docname="xchat-gnome.svg"
   inkscape:output_extension="org.inkscape.output.svg.inkscape">
  <defs
     id="defs4">
    <linearGradient
       id="linearGradient4588">
      <stop
         id="stop4591"
         style="stop-color:#000000;stop-opacity:0.3255814;"
         offset="0" />
      <stop
         id="stop4590"
         style="stop-color:#000000;stop-opacity:0.19215687;"
         offset="0.50000000" />
      <stop
         id="stop4589"
         style="stop-color:#000000;stop-opacity:0.0000000;"
         offset="1.0000000" />
    </linearGradient>
    <radialGradient
       r="7.228416"
       fy="73.615715"
       fx="6.702713"
       cy="73.615715"
       cx="6.702713"
       gradientTransform="scale(1.902215,0.525703)"
       gradientUnits="userSpaceOnUse"
       id="radialGradient10066"
       xlink:href="#linearGradient4588"
       inkscape:collect="always" />
    <linearGradient
       inkscape:collect="always"
       id="linearGradient2542">
      <stop
         style="stop-color:#d4d4d4;stop-opacity:1"
         offset="0"
         id="stop2544" />
      <stop
         style="stop-color:#ebebe9;stop-opacity:1"
         offset="1"
         id="stop2546" />
    </linearGradient>
    <linearGradient
       inkscape:collect="always"
       xlink:href="#linearGradient2542"
       id="linearGradient2478"
       gradientUnits="userSpaceOnUse"
       gradientTransform="matrix(0.5392005,-4.9120459e-2,5.3026669e-2,0.5875101,-2.0654075,-0.980875)"
       x1="24"
       y1="33.799904"
       x2="24"
       y2="13.56527" />
    <linearGradient
       id="linearGradient4593">
      <stop
         style="stop-color:#ffffff;stop-opacity:1;"
         offset="0"
         id="stop12409" />
      <stop
         style="stop-color:#ffffff;stop-opacity:0.0000000;"
         offset="1.0000000"
         id="stop12411" />
    </linearGradient>
    <linearGradient
       inkscape:collect="always"
       xlink:href="#linearGradient4593"
       id="linearGradient2475"
       gradientUnits="userSpaceOnUse"
       gradientTransform="matrix(0.510074,-4.6449072e-2,5.0162281e-2,0.5555587,-1.305188,-0.2387713)"
       x1="23.967623"
       y1="1.0104272"
       x2="23.967623"
       y2="47.604183" />
    <linearGradient
       id="linearGradient19229-104-621-395-322-303">
      <stop
         style="stop-color:#c3ae00;stop-opacity:1;"
         offset="0"
         id="stop3185" />
      <stop
         style="stop-color:#c92121;stop-opacity:1"
         offset="1"
         id="stop3187" />
    </linearGradient>
    <linearGradient
       inkscape:collect="always"
       xlink:href="#linearGradient19229-104-621-395-322-303"
       id="linearGradient3326"
       x1="9.4329195"
       y1="4.3984976"
       x2="11.067943"
       y2="16.030073"
       gradientUnits="userSpaceOnUse"
       gradientTransform="translate(-0.1196662,0.1351597)" />
    <linearGradient
       id="linearGradient4150">
      <stop
         style="stop-color:#fce94f;stop-opacity:1;"
         offset="0"
         id="stop4152" />
      <stop
         style="stop-color:#ff8181;stop-opacity:1"
         offset="1"
         id="stop4154" />
    </linearGradient>
    <linearGradient
       inkscape:collect="always"
       xlink:href="#linearGradient4150"
       id="linearGradient2548"
       x1="11.415708"
       y1="4.3984976"
       x2="13.133347"
       y2="16.030073"
       gradientUnits="userSpaceOnUse"
       gradientTransform="translate(-0.1196662,0.1351597)" />
    <inkscape:perspective
       sodipodi:type="inkscape:persp3d"
       inkscape:vp_x="0 : 526.18109 : 1"
       inkscape:vp_y="0 : 1000 : 0"
       inkscape:vp_z="744.09448 : 526.18109 : 1"
       inkscape:persp3d-origin="372.04724 : 350.78739 : 1"
       id="perspective10" />
  </defs>
  <sodipodi:namedview
     id="base"
     pagecolor="#ffffff"
     bordercolor="#666666"
     borderopacity="1.0"
     gridtolerance="10000"
     guidetolerance="10"
     objecttolerance="10"
     inkscape:pageopacity="0.0"
     inkscape:pageshadow="2"
     inkscape:zoom="10.375"
     inkscape:cx="12"
     inkscape:cy="12"
     inkscape:document-units="px"
     inkscape:current-layer="layer1"
     showgrid="false"
     inkscape:window-width="640"
     inkscape:window-height="720"
     inkscape:window-x="798"
     inkscape:window-y="24" />
  <metadata
     id="metadata7">
    <rdf:RDF>
      <cc:Work
         rdf:about="">
        <dc:format>image/svg+xml</dc:format>
        <dc:type
           rdf:resource="http://purl.org/dc/dcmitype/StillImage" />
      </cc:Work>
    </rdf:RDF>
  </metadata>
  <g
     inkscape:label="Layer 1"
     inkscape:groupmode="layer"
     id="layer1">
    <path
       transform="matrix(0.8542113,0,0,0.6770133,1.1088059,-4.773066)"
       d="M 26.5,38.700001 A 13.75,3.8 0 1 1 -1,38.700001 A 13.75,3.8 0 1 1 26.5,38.700001 z"
       sodipodi:ry="3.8"
       sodipodi:rx="13.75"
       sodipodi:cy="38.700001"
       sodipodi:cx="12.75"
       id="path2460"
       style="opacity:0.40000000000000002;fill:url(#radialGradient10066);fill-opacity:1;fill-rule:nonzero;stroke:none;stroke-width:0.71986048999999996;stroke-linecap:butt;stroke-linejoin:miter;marker:none;marker-start:none;marker-mid:none;marker-end:none;stroke-miterlimit:0;stroke-dasharray:none;stroke-dashoffset:0;stroke-opacity:1;visibility:visible;display:inline;overflow:visible"
       sodipodi:type="arc" />
    <path
       style="fill:url(#linearGradient2478);fill-opacity:1;fill-rule:evenodd;stroke:#8f928c;stroke-width:0.99525028000000004;stroke-linecap:butt;stroke-linejoin:round;marker:none;marker-start:none;marker-mid:none;marker-end:none;stroke-miterlimit:4;stroke-dasharray:none;stroke-dashoffset:0;stroke-opacity:1;visibility:visible;display:inline;overflow:visible"
       d="M 10.440348,2.395488 C 4.804251,3.225195 0.63388146,7.102695 1.0128051,11.301 C 1.2581744,14.019574 3.3478552,16.257193 6.336181,17.437791 L 5.0888125,22.291039 L 10.60708,18.306012 L 10.645229,18.302537 C 11.326223,18.335038 12.010377,18.345812 12.720333,18.281136 C 18.778623,17.729235 23.384738,13.703942 22.987176,9.299165 C 22.589616,4.894387 17.337937,1.767127 11.279647,2.319029 C 10.995665,2.344899 10.717534,2.354682 10.440348,2.395488 z"
       id="path2462"
       sodipodi:nodetypes="csccccsssc" />
    <path
       id="path2464"
       d="M 10.655557,3.4062902 C 5.9206305,4.0946056 1.7456532,7.1581202 2.0749596,11.306254 C 2.2961442,14.092425 4.8927215,15.983071 7.593216,16.861998 L 6.6020305,19.998532 L 10.296558,17.375419 C 10.868351,17.400214 11.957524,17.444437 12.553868,17.390131 C 17.062895,16.979524 22.545453,13.579381 22.023973,9.4389937 C 21.496,5.2470643 16.495452,2.8516764 11.360544,3.3420913 C 11.122107,3.3648635 10.888422,3.37244 10.655557,3.4062902 z"
       style="opacity:0.40000000000000002;fill:none;fill-opacity:1;fill-rule:evenodd;stroke:url(#linearGradient2475);stroke-width:0.99525028000000004;stroke-linecap:butt;stroke-linejoin:miter;marker:none;marker-start:none;marker-mid:none;marker-end:none;stroke-miterlimit:4;stroke-dasharray:none;stroke-dashoffset:0;stroke-opacity:1;visibility:visible;display:inline;overflow:visible"
       sodipodi:nodetypes="cscccsssc" />
    <path
       style="fill:url(#linearGradient2548);fill-opacity:1;fill-rule:evenodd;stroke:url(#linearGradient3326);stroke-width:0.75000000000000000;stroke-linecap:round;stroke-linejoin:round;stroke-miterlimit:4;stroke-dasharray:none;stroke-opacity:1"
       d="M 8.3843758,5.7265829 L 6.7966868,7.777467 L 10.418188,10.581044 L 7.6146118,14.202545 L 9.6654988,15.790232 L 12.469074,12.168733 L 16.090576,14.972307 L 17.678265,12.921422 L 14.056762,10.117846 L 16.86034,6.4963438 L 14.809453,4.9086575 L 12.005876,8.5301584 L 8.3843758,5.7265829 z"
       id="path2530" />
  </g>
</svg>
